X: 37
T:La Fantase. GS.037
T:Sally Sloane's.etc.aka. GS.037
M:6/8
L:1/8
Q:120
S:George Spencer m/s, Leeds,1831
R:Jig
O:England
A:Leeds
H:1831
Z:vmp.Cherri Graebe
K:F major
(c/2A/2) | FcA FcA | GcB GcB | Acg fef | agg g2 (c/2A/2) |FcA FcA |
 GcB GcB |! Acg feg |
 fff f2 || f/2g/2 | a3 f3 | aaa a3 | g3 e3 | fff f2 f/2g/2 |! a3f3 | aaa
 a3 | g3 e3 | fff f2|| A/2B/2 |
 c3 BAB | c3 BAB |! c2cf2a | agf edc | B3 AGA | B3 AGA | Bdc BAG | GFF F
2 ||
